assets/images/login-connectors/brave.svg

<svg width="100" height="100" viewBox="0 0 100 100" fill="none" xmlns="http://www.w3.org/2000/svg">
  <circle cx="50" cy="50" r="50" fill="white"/>
  <path fill-rule="evenodd" clip-rule="evenodd" d="M81.5511 30.7111L83.4216 26.2217C83.4216 26.2217 81.0411 23.7266 78.1505 20.8994C75.2611 18.0721 69.1408 19.7355 69.1408 19.7355L62.1712 12H37.6909L30.7213 19.7355C30.7213 19.7355 24.6009 18.0721 21.7116 20.8994C18.821 23.7266 16.4417 26.2217 16.4417 26.2217L18.3122 30.7111L15.9304 37.3633C15.9304 37.3633 22.9312 63.2982 23.7517 66.4661C25.3666 72.7019 26.4715 75.1127 31.0618 78.2734C35.6508 81.4328 43.9809 86.92 45.3401 87.7529C46.7006 88.5833 48.4016 90 49.9317 90C51.4618 90 53.1614 88.5833 54.5207 87.7529C55.8812 86.9212 64.21 81.4328 68.8016 78.2734C73.3906 75.114 74.4967 72.7019 76.1116 66.4661C76.9309 63.2982 83.9304 37.3633 83.9304 37.3633L81.5511 30.7111Z" fill="url(#paint0_linear_7075_20556)"/>
  <path fill-rule="evenodd" clip-rule="evenodd" d="M58.527 26.1575C59.5385 26.1575 67.0408 24.7504 67.0408 24.7504C67.0408 24.7504 75.9304 35.3066 75.9304 37.5638C75.9304 39.4294 75.165 40.1591 74.2648 41.0202C74.0768 41.2002 73.8814 41.385 73.6873 41.5893L67.0222 48.5421C66.9507 48.616 66.8781 48.689 66.8046 48.761C66.1393 49.4178 65.1599 50.3858 65.8499 51.9936L65.9921 52.3207C66.7502 54.0623 67.6862 56.2124 66.4954 58.3894C65.228 60.7074 63.0578 62.2543 61.6666 61.9977C60.2767 61.7423 57.0097 60.0652 55.809 59.3003C54.6083 58.5341 50.801 55.4499 50.801 54.269C50.801 53.2851 53.5387 51.6482 54.8693 50.8516C55.1339 50.6935 55.3429 50.5695 55.4628 50.4892C55.6001 50.398 55.8301 50.2581 56.1132 50.0854C57.3263 49.3436 59.5187 48.0058 59.5744 47.4135C59.6424 46.6814 59.6164 46.4673 58.6371 44.6601C58.4293 44.2758 58.1857 43.8648 57.9347 43.4391C57.0023 41.8642 55.9587 40.1007 56.1911 38.8372C56.4508 37.4106 58.7261 36.5933 60.6527 35.9001C60.8926 35.815 61.1287 35.7299 61.3538 35.646L63.3607 34.9053C65.2848 34.1975 67.4216 33.4106 67.7753 33.2513C68.2625 33.0312 68.1364 32.8196 66.6587 32.6822C66.4195 32.6591 66.1804 32.6348 65.9414 32.6092C64.1113 32.4183 60.7367 32.0668 59.0971 32.5156C58.7743 32.6043 58.4132 32.7004 58.0336 32.8014C56.1911 33.2915 53.9319 33.8922 53.7143 34.2389C53.6772 34.2997 53.6401 34.352 53.6042 34.4006C53.3965 34.69 53.2617 34.8798 53.4917 36.1105C53.5597 36.4778 53.7007 37.199 53.8751 38.0917C54.382 40.704 55.1772 44.7781 55.2773 45.6927C55.2909 45.8216 55.307 45.9444 55.3218 46.0636C55.4492 47.0852 55.5333 47.765 54.3264 48.0362L54.0111 48.1067C52.6484 48.4132 50.6513 48.8644 49.9304 48.8644C49.2083 48.8644 47.21 48.4144 45.8473 48.1067L45.5332 48.0362C44.3263 47.765 44.4116 47.0852 44.539 46.0636C44.5538 45.9444 44.5687 45.8203 44.5823 45.6927C44.6824 44.7769 45.4788 40.6918 45.9883 38.0807C46.1614 37.1929 46.3011 36.4754 46.3691 36.1105C46.5979 34.8798 46.4631 34.69 46.2554 34.4006C46.2171 34.3475 46.18 34.2935 46.1441 34.2389C45.9289 33.8922 43.6709 33.2915 41.8272 32.8014C41.4476 32.7004 41.0853 32.6043 40.7638 32.5156C39.1228 32.0656 35.7495 32.4183 33.9194 32.6092C33.6399 32.6384 33.3976 32.6639 33.2022 32.6822C31.7232 32.8196 31.5984 33.0312 32.0856 33.2513C32.438 33.4106 34.5748 34.1975 36.4976 34.9053C37.2358 35.1765 37.9444 35.4368 38.5058 35.646C38.7321 35.7299 38.967 35.8138 39.2082 35.9013C41.1347 36.5946 43.41 37.4106 43.6697 38.8372C43.9009 40.1007 42.8573 41.8642 41.9261 43.4391C41.6739 43.8648 41.4315 44.2758 41.2225 44.6601C40.2444 46.4673 40.2184 46.6814 40.2865 47.4135C40.3409 48.007 42.5321 49.3436 43.7464 50.0854C44.0295 50.2581 44.2595 50.398 44.3968 50.4892C44.518 50.5695 44.7257 50.6935 44.9903 50.8516C46.3209 51.647 49.0586 53.2839 49.0586 54.269C49.0586 55.4487 45.2525 58.5341 44.0506 59.3003C42.8511 60.0665 39.5841 61.7423 38.193 61.9977C36.8031 62.2531 34.6316 60.7074 33.3654 58.3906C32.1746 56.2124 33.1094 54.0623 33.8674 52.3219L34.0097 51.9936C34.7009 50.3858 33.7215 49.4178 33.055 48.761C32.9819 48.689 32.9098 48.616 32.8386 48.5421L26.1735 41.5893C25.9782 41.3862 25.7828 41.2002 25.5948 41.0202C24.6946 40.1603 23.9304 39.4294 23.9304 37.5638C23.9304 35.3079 32.8201 24.7504 32.8201 24.7504C32.8201 24.7504 40.3211 26.1575 41.3326 26.1575C42.1401 26.1575 43.6981 25.6309 45.323 25.0812C45.7348 24.9425 46.1502 24.8014 46.5595 24.6677C48.5813 24.0049 49.9304 24 49.9304 24C49.9304 24 51.2783 24.0049 53.3013 24.6677C53.7094 24.8014 54.1261 24.9425 54.5379 25.0812C56.1615 25.6309 57.7208 26.1575 58.527 26.1575ZM57.2397 63.5009C58.825 64.3036 59.9503 64.8727 60.3757 65.1342C60.9259 65.4723 60.5908 66.1108 60.0888 66.4598C59.588 66.8064 52.8512 71.9313 52.1983 72.498L51.9324 72.7303C51.303 73.2885 50.4992 74 49.9292 74C49.3604 74 48.5566 73.2873 47.9259 72.7303L47.6626 72.498C47.0072 71.9313 40.2716 66.8064 39.7708 66.4586C39.27 66.1108 38.9337 65.4735 39.4839 65.133C39.9093 64.8727 41.0358 64.3023 42.6236 63.4985L44.1322 62.7335C46.5064 61.5271 49.4679 60.4994 49.9304 60.4994C50.3917 60.4994 53.352 61.5258 55.7287 62.7335C56.2678 63.0083 56.7736 63.2662 57.2397 63.5009Z" fill="white"/>
  <path fill-rule="evenodd" clip-rule="evenodd" d="M68.9908 19.7056L62.0754 12H37.7855L30.8701 19.7056C30.8701 19.7056 24.7973 18.0487 21.9304 20.865C21.9304 20.865 30.0275 20.1472 32.8102 24.5925C32.8102 24.5925 40.3158 26 41.3279 26C42.3401 26 44.5326 25.1727 46.5569 24.5097C48.5811 23.8467 49.931 23.8418 49.931 23.8418C49.931 23.8418 51.2797 23.8467 53.304 24.5097C55.3282 25.1727 57.5208 26 58.5329 26C59.545 26 67.0519 24.5925 67.0519 24.5925C69.8346 20.1472 77.9304 20.865 77.9304 20.865C75.0635 18.0487 68.9908 19.7056 68.9908 19.7056Z" fill="url(#paint1_linear_7075_20556)"/>
  <defs>
    <linearGradient id="paint0_linear_7075_20556" x1="15.9317" y1="90.5508" x2="83.9304" y2="90.5508" gradientUnits="userSpaceOnUse">
      <stop stop-color="#FF5500"/>
      <stop offset="0.41" stop-color="#FF5500"/>
      <stop offset="0.582" stop-color="#FF2000"/>
      <stop offset="1" stop-color="#FF2000"/>
    </linearGradient>
    <linearGradient id="paint1_linear_7075_20556" x1="23.1331" y1="25.9489" x2="77.9304" y2="25.9489" gradientUnits="userSpaceOnUse">
      <stop stop-color="#FF452A"/>
      <stop offset="1" stop-color="#FF2000"/>
    </linearGradient>
  </defs>
  </svg>

<svg xmlns="http://www.w3.org/2000/svg" fill="none" viewBox="0 0 100 100">
  <circle cx="50" cy="50" r="50" fill="#fff"/>
  <path fill="url(#a)" fill-rule="evenodd" d="m81.551 30.711 1.87-4.49s-2.38-2.494-5.27-5.322c-2.89-2.827-9.01-1.164-9.01-1.164L62.17 12h-24.48l-6.97 7.735s-6.12-1.663-9.01 1.164c-2.89 2.828-5.27 5.323-5.27 5.323l1.871 4.49-2.382 6.651s7.001 25.935 7.822 29.103c1.615 6.236 2.72 8.647 7.31 11.807 4.589 3.16 12.919 8.647 14.278 9.48 1.36.83 3.062 2.247 4.592 2.247 1.53 0 3.23-1.417 4.589-2.247 1.36-.832 9.689-6.32 14.28-9.48 4.59-3.159 5.696-5.571 7.31-11.807.82-3.168 7.82-29.103 7.82-29.103l-2.38-6.652Z" clip-rule="evenodd"/>
  <path fill="#fff" fill-rule="evenodd" d="M58.527 26.157c1.011 0 8.514-1.407 8.514-1.407s8.89 10.557 8.89 12.814c0 1.865-.766 2.595-1.666 3.456-.188.18-.384.365-.578.57l-6.665 6.952c-.071.074-.144.147-.217.219-.666.657-1.645 1.625-.955 3.233l.142.327c.758 1.741 1.694 3.891.503 6.068-1.267 2.318-3.437 3.865-4.828 3.609-1.39-.256-4.657-1.933-5.858-2.698-1.2-.766-5.008-3.85-5.008-5.031 0-.984 2.738-2.62 4.068-3.417.265-.158.474-.282.594-.363.137-.091.367-.23.65-.404 1.213-.741 3.406-2.08 3.461-2.672.068-.732.042-.946-.937-2.753-.208-.384-.451-.795-.702-1.22-.933-1.576-1.976-3.34-1.744-4.603.26-1.426 2.535-2.244 4.462-2.937.24-.085.476-.17.7-.254l2.008-.74c1.924-.709 4.06-1.495 4.414-1.655.487-.22.361-.431-1.116-.569-.24-.023-.479-.047-.718-.073-1.83-.19-5.204-.542-6.844-.093-.323.088-.684.184-1.063.285-1.843.49-4.102 1.091-4.32 1.438-.037.06-.074.113-.11.162-.207.289-.342.479-.112 1.71.068.367.209 1.088.383 1.98.507 2.613 1.302 6.687 1.402 7.602.014.129.03.251.045.37.127 1.022.211 1.702-.996 1.973l-.315.07c-1.363.307-3.36.758-4.08.758-.723 0-2.721-.45-4.084-.757l-.314-.07c-1.207-.272-1.121-.952-.994-1.973.015-.12.03-.244.043-.371.1-.916.897-5.001 1.406-7.612.173-.888.313-1.606.381-1.97.229-1.231.094-1.421-.114-1.71a4.543 4.543 0 0 1-.11-.162c-.216-.347-2.474-.947-4.318-1.438-.38-.1-.742-.197-1.063-.285-1.641-.45-5.015-.098-6.845.093-.28.03-.521.055-.717.073-1.479.138-1.604.35-1.116.57.352.159 2.489.945 4.412 1.653.738.271 1.446.532 2.008.741.226.084.461.168.702.255 1.927.694 4.202 1.51 4.462 2.936.23 1.264-.813 3.027-1.744 4.602-.252.426-.495.837-.704 1.221-.978 1.807-1.004 2.021-.936 2.754.055.593 2.246 1.93 3.46 2.671.283.173.514.313.65.404.122.08.33.205.594.363 1.33.795 4.069 2.432 4.069 3.417 0 1.18-3.806 4.265-5.008 5.031-1.2.767-4.467 2.442-5.858 2.698-1.39.255-3.561-1.29-4.828-3.607-1.19-2.179-.256-4.329.502-6.07l.143-.327c.69-1.608-.288-2.576-.955-3.233a11.754 11.754 0 0 1-.216-.219l-6.665-6.953c-.196-.203-.391-.389-.58-.569-.9-.86-1.664-1.59-1.664-3.456 0-2.256 8.89-12.814 8.89-12.814s7.501 1.407 8.513 1.407c.807 0 2.365-.526 3.99-1.076.412-.139.827-.28 1.236-.413C48.581 24.005 49.93 24 49.93 24s1.348.005 3.371.668c.408.133.825.274 1.237.413 1.623.55 3.183 1.076 3.989 1.076ZM57.24 63.502c1.585.803 2.71 1.372 3.136 1.633.55.338.215.977-.287 1.326-.501.346-7.238 5.471-7.89 6.038l-.267.232C51.303 73.288 50.5 74 49.93 74c-.569 0-1.372-.713-2.003-1.27l-.263-.232c-.656-.567-7.391-5.692-7.892-6.04-.501-.347-.837-.984-.287-1.325.425-.26 1.552-.83 3.14-1.634l1.508-.766c2.374-1.206 5.336-2.234 5.798-2.234.462 0 3.422 1.027 5.799 2.234.539.275 1.045.533 1.51.768Z" clip-rule="evenodd"/>
  <path fill="url(#b)" fill-rule="evenodd" d="M68.99 19.706 62.076 12h-24.29l-6.915 7.706s-6.073-1.657-8.94 1.159c0 0 8.098-.718 10.88 3.728 0 0 7.506 1.407 8.518 1.407 1.012 0 3.205-.827 5.229-1.49s3.374-.668 3.374-.668 1.349.005 3.373.668S57.521 26 58.533 26c1.012 0 8.519-1.407 8.519-1.407 2.783-4.446 10.878-3.728 10.878-3.728-2.867-2.816-8.94-1.16-8.94-1.16Z" clip-rule="evenodd"/>
  <defs>
    <linearGradient id="a" x1="15.932" x2="83.93" y1="90.551" y2="90.551" gradientUnits="userSpaceOnUse">
      <stop stop-color="#F50"/>
      <stop offset=".41" stop-color="#F50"/>
      <stop offset=".582" stop-color="#FF2000"/>
      <stop offset="1" stop-color="#FF2000"/>
    </linearGradient>
    <linearGradient id="b" x1="23.133" x2="77.93" y1="25.949" y2="25.949" gradientUnits="userSpaceOnUse">
      <stop stop-color="#FF452A"/>
      <stop offset="1" stop-color="#FF2000"/>
    </linearGradient>
  </defs>
</svg>
